app/assets/images/alert/fail-x.svg

<svg xmlns="http://www.w3.org/2000/svg" viewBox="0 0 96 96.02"><defs><linearGradient id="a" x1="20.07" y1="11.02" x2="72.88" y2="80.95" gradientUnits="userSpaceOnUse"><stop offset="0" stop-color="#ea4d67"/><stop offset="1" stop-color="#e21c3d"/></linearGradient><linearGradient id="b" x1="34.98" y1="33.9" x2="80.06" y2="81.83" gradientUnits="userSpaceOnUse"><stop offset="0" stop-color="#a50025"/><stop offset="1" stop-color="#e21c3d"/></linearGradient><linearGradient id="c" x1="38.56" y1="-5.51" x2="57.44" y2="101.51" gradientUnits="userSpaceOnUse"><stop offset="0" stop-color="#ea4d67"/><stop offset="1" stop-color="#a50025"/></linearGradient></defs><rect width="96" height="96" rx="8" ry="8" fill="url(#a)"/><path d="M19.38 75.51L38.36 96H88a8 8 0 008-8V40.25L75.37 18.89z" fill="url(#b)"/><circle cx="87" cy="87" r="3" fill="#820025"/><circle cx="9" cy="87" r="3" fill="#820025"/><circle cx="87" cy="9" r="3" fill="#820025"/><circle cx="9" cy="9" r="3" fill="#820025"/><path d="M56.11 47.58L75.8 27.89a6 6 0 10-8.49-8.48L47.63 39.09 27.94 19.41a6 6 0 00-8.49 8.48l19.69 19.69-19.69 19.69a6 6 0 108.49 8.48l19.69-19.69 19.68 19.69a6 6 0 008.49-8.48z" fill="#fff"/><path d="M88 2a6 6 0 016 6v80a6 6 0 01-6 6H8a6 6 0 01-6-6V8a6 6 0 016-6h80m0-2H8a8 8 0 00-8 8v80a8 8 0 008 8h80a8 8 0 008-8V8a8 8 0 00-8-8z" fill="url(#c)"/></svg>

<svg xmlns="http://www.w3.org/2000/svg" xmlns:xlink="http://www.w3.org/1999/xlink" viewBox="0 0 96 96.02"><defs><linearGradient id="New_Gradient_Swatch_4" x1="20.07" y1="11.02" x2="72.88" y2="80.95" gradientUnits="userSpaceOnUse"><stop offset="0" stop-color="#ea4d67"/><stop offset="1" stop-color="#e21c3d"/></linearGradient><linearGradient id="New_Gradient_Swatch_6" x1="34.98" y1="33.9" x2="80.06" y2="81.83" gradientUnits="userSpaceOnUse"><stop offset="0" stop-color="#a50025"/><stop offset="1" stop-color="#e21c3d"/></linearGradient><linearGradient id="linear-gradient" x1="38.56" y1="-5.51" x2="57.44" y2="101.51" gradientUnits="userSpaceOnUse"><stop offset="0" stop-color="#ea4d67"/><stop offset="1" stop-color="#a50025"/></linearGradient></defs><title>fail</title><g id="Layer_2" data-name="Layer 2"><g id="Layer_1-2" data-name="Layer 1"><rect width="96" height="96" rx="8" ry="8" fill="url(#New_Gradient_Swatch_4)"/><path d="M19.38,75.51,38.36,96H88a8,8,0,0,0,8-8V40.25L75.37,18.89Z" fill="url(#New_Gradient_Swatch_6)"/><circle cx="87" cy="87" r="3" fill="#820025"/><circle cx="9" cy="87" r="3" fill="#820025"/><circle cx="87" cy="9" r="3" fill="#820025"/><circle cx="9" cy="9" r="3" fill="#820025"/><path d="M56.11,47.58,75.8,27.89a6,6,0,1,0-8.49-8.48L47.63,39.09,27.94,19.41a6,6,0,0,0-8.49,8.48L39.14,47.58,19.45,67.27a6,6,0,1,0,8.49,8.48L47.63,56.06,67.31,75.75a6,6,0,0,0,8.49-8.48Z" fill="#fff"/><path d="M88,2a6,6,0,0,1,6,6V88a6,6,0,0,1-6,6H8a6,6,0,0,1-6-6V8A6,6,0,0,1,8,2H88m0-2H8A8,8,0,0,0,0,8V88a8,8,0,0,0,8,8H88a8,8,0,0,0,8-8V8a8,8,0,0,0-8-8Z" fill="url(#linear-gradient)"/></g></g></svg>
